X:1430
T:Tanz
C:Johann Christoph Demantius
O:Germany
B:Demantius 1601
R:Allemande
Z:Transcribed by Frank Nordberg - http://www.musicaviva.com
F:http://abc.musicaviva.com/tunes/demantius-johann-christoph/demantius-tanz-01.abc
M:C|
L:1/4
Q:1/2=120
K:Gdor
d=Bc>_B|AFAB|cBA2|B>cdB|
cd_e2|d>cBA/G/|AGG^F|G4::GBAc|
B>cd>c|Bdd^c|dAd/c/B/A/|GcAd|
B_ecf|dgcA|B>cdc/B/|AGG^F|G4:|
W:
W:
W:  From Musica Viva - http://www.musicaviva.com
W:  the Internet center for free sheet music downloads.

